X:692
T:The Ingonish jig
R:Jig
S:My arrangement from various sources
Z:Transcription, arrangement, chords:Mike Long
M:6/8
L:1/8
K:D
A|\
"Em"Bee efg|"D"fef dBA|"Em"Bee efg|"D"fdc d2A|\
"Em"Bee efg|"D"fef dBA|"G"~B3 Bcd|"D"AGF "Em"E2A:|
|:"Em"BEE BEE|"D"FEF DFA|"Em"BEE BEE|"D"FED "Em"E2A|\
"Em"BEE BEE|"D"FEF DFA|"G"~B3 Bcd|"D"AGF "Em"E3:|
